X: 42226
T: Wayfaring Stranger, The
R: reel
M: 4/4
K: Aminor
A2A2e2e2|e4d2e2-|d2c2{G}A2A2-|A-A -e2 d2|
d2d2c2 cd|e2e6-|e2A2A2e2|e8|
d2e2d2c2|{G}A2A4Ae|d2d2d2c{F}G|G2A-A4|
A2A2A2 e2-|eg (a6|a2)g2e2d2|eg g6|
ega6|g2e2=f-e2|e4z2A2|A2e2e4|
e2d2e2d2|c{G}A6-|Aed2d4-|c{F}G-A2-A4||

